irem/_inc/system.svg

<svg xmlns="http://www.w3.org/2000/svg"><g fill="#fff" stroke="#141414" stroke-linecap="round"><path d="m1543.705-2419.057h71.814v65.781h-71.814z" transform="matrix(1 0 0 1.000002 -1543.704956 2419.062769)"/><path d="m0 65.926h71.814v150.522h-71.814z"/><path d="m71.766 65.913v71.904 78.609h71.904v-78.609h78.609v-71.904h-78.609z"/><path d="m222.255 65.913v150.513h149.496v-45.702h-97.497v-.468h97.497v-104.343zm51.999 46.515h44.28v.18h-44.28z"/><path d="m371.895 65.913v150.513h78.429v-77.592h.18v77.592h77.412v-77.592h.18v77.592h71.904v-150.513z"/></g></svg>

<?xml version="1.0" encoding="utf-8"?>
<svg version="1.0" id="svg2" xmlns="http://www.w3.org/2000/svg">
  <g>
    <rect width="71.814" height="65.781" x="1543.705" y="-2419.057" id="rect3738" style="opacity: 1; fill-opacity: 1; fill-rule: nonzero; stroke-width: 1; stroke-linecap: round; stroke-linejoin: miter; stroke-miterlimit: 4; stroke-dasharray: none; stroke-opacity: 1; stroke: rgb(20, 20, 20); fill: rgb(255, 255, 255);" transform="matrix(1, 0, 0, 1.000002, -1543.704956, 2419.062769)"/>
    <rect width="71.814" height="150.522" y="65.926" id="rect3740" style="opacity: 1; fill-opacity: 1; fill-rule: nonzero; stroke-width: 1; stroke-linecap: round; stroke-linejoin: miter; stroke-miterlimit: 4; stroke-dasharray: none; stroke-opacity: 1; fill: rgb(255, 255, 255); stroke: rgb(20, 20, 20);"/>
    <path d="M 71.766 65.913 L 71.766 137.817 L 71.766 216.426 L 143.67 216.426 L 143.67 137.817 L 222.279 137.817 L 222.279 65.913 L 143.67 65.913 L 71.766 65.913 Z" id="rect3742" style="opacity: 1; fill-opacity: 1; fill-rule: nonzero; stroke-width: 1; stroke-linecap: round; stroke-linejoin: miter; stroke-miterlimit: 4; stroke-dasharray: none; stroke-opacity: 1; stroke: rgb(20, 20, 20); fill: rgb(255, 255, 255);"/>
    <path d="M 222.255 65.913 L 222.255 216.426 L 371.751 216.426 L 371.751 170.724 L 274.254 170.724 L 274.254 170.256 L 371.751 170.256 L 371.751 65.913 L 222.255 65.913 Z M 274.254 112.428 L 318.534 112.428 L 318.534 112.608 L 274.254 112.608 L 274.254 112.428 Z" id="rect3746" style="opacity: 1; fill-opacity: 1; fill-rule: nonzero; stroke-width: 1; stroke-linecap: round; stroke-linejoin: miter; stroke-miterlimit: 4; stroke-dasharray: none; stroke-opacity: 1; stroke: rgb(20, 20, 20); fill: rgb(255, 255, 255);"/>
    <path d="M 371.895 65.913 L 371.895 216.426 L 450.324 216.426 L 450.324 138.834 L 450.504 138.834 L 450.504 216.426 L 527.916 216.426 L 527.916 138.834 L 528.096 138.834 L 528.096 216.426 L 600 216.426 L 600 65.913 L 371.895 65.913 Z" id="rect3748" style="opacity: 1; fill-opacity: 1; fill-rule: nonzero; stroke-width: 1; stroke-linecap: round; stroke-linejoin: miter; stroke-miterlimit: 4; stroke-dasharray: none; stroke-opacity: 1; stroke: rgb(20, 20, 20); fill: rgb(255, 255, 255);"/>
  </g>
</svg>
